X: 7431
T: Closet Bodhran, The
R: reel
M: 4/4
K: Aminor
|:Acde ~A2 Ac|BAGB ABcB|ABcd efed|cdec ~B2 GB|
Acde A2 A/B/c|BcdB AGEG|ABcd cdef|edcB ~B2 AB:|
|:BAeA a2 gf|edef e2 dc|BcdB c/c/c AG|EGAc ~B2 AG|
Aceg a2 gf|eeec A2 AG|ABcd BGEG|ABAG A2 AG:|

